mobile/24/svg/reading-list-24.svg

<svg width="24" height="24" viewBox="0 0 24 24" fill="none" xmlns="http://www.w3.org/2000/svg">
<path fill-rule="evenodd" clip-rule="evenodd" d="M3 5.5C3 4.11975 4.11975 3 5.5 3H10.25C10.4023 3 10.5519 3.03974 10.6841 3.11529L12 3.86722L13.3159 3.11529C13.4481 3.03974 13.5977 3 13.75 3H18.5C19.8802 3 21 4.11975 21 5.5V18.5C21 19.8802 19.8802 21 18.5 21H13.9824L12.4341 21.8847C12.1651 22.0384 11.8349 22.0384 11.5659 21.8847L10.0176 21H5.5C4.11975 21 3 19.8802 3 18.5V5.5ZM5.5 4.75C5.08625 4.75 4.75 5.08625 4.75 5.5V18.5C4.75 18.9138 5.08625 19.25 5.5 19.25H10.25C10.4023 19.25 10.5519 19.2897 10.6841 19.3653L12 20.1172L13.3159 19.3653C13.4481 19.2897 13.5977 19.25 13.75 19.25H18.5C18.9138 19.25 19.25 18.9138 19.25 18.5V5.5C19.25 5.08625 18.9138 4.75 18.5 4.75H13.9824L12.4341 5.63471C12.1651 5.78843 11.8349 5.78843 11.5659 5.63471L10.0176 4.75H5.5Z" fill="black"/>
<path fill-rule="evenodd" clip-rule="evenodd" d="M12 13H7V11.25H12V13Z" fill="black"/>
<path fill-rule="evenodd" clip-rule="evenodd" d="M11 17H7V15.25H11V17Z" fill="black"/>
<path fill-rule="evenodd" clip-rule="evenodd" d="M12 9H7V7.25H12V9Z" fill="black"/>
</svg>

<svg width="24" height="24" fill="none" xmlns="http://www.w3.org/2000/svg"><path fill-rule="evenodd" clip-rule="evenodd" d="M3 5.5A2.5 2.5 0 0 1 5.5 3h4.75c.152 0 .302.04.434.115L12 3.867l1.316-.752A.875.875 0 0 1 13.75 3h4.75A2.5 2.5 0 0 1 21 5.5v13a2.5 2.5 0 0 1-2.5 2.5h-4.518l-1.548.885a.875.875 0 0 1-.868 0L10.018 21H5.5A2.5 2.5 0 0 1 3 18.5v-13zm2.5-.75a.75.75 0 0 0-.75.75v13c0 .414.336.75.75.75h4.75c.152 0 .302.04.434.115l1.316.752 1.316-.752a.874.874 0 0 1 .434-.115h4.75a.75.75 0 0 0 .75-.75v-13a.75.75 0 0 0-.75-.75h-4.518l-1.548.885a.875.875 0 0 1-.868 0l-1.548-.885H5.5z" fill="#000"/><path fill-rule="evenodd" clip-rule="evenodd" d="M12 13H7v-1.75h5V13zM11 17H7v-1.75h4V17zM12 9H7V7.25h5V9z" fill="#000"/></svg>
